style/icons/logo.svg

<svg width="79" height="79" viewBox="0 0 79 79" fill="none" xmlns="http://www.w3.org/2000/svg">
<path d="M79 39.5C79 61.3153 61.3123 79 39.4981 79C17.6877 79 0 61.3153 0 39.5C0 17.6847 17.6877 0 39.4981 0C61.3123 0 79 17.6847 79 39.5Z" fill="#412C88"/>
<path d="M36.1036 26V42.6731C36.1036 49.7728 31.7751 53 26.584 53C21.582 53 17 49.7728 17 42.6731V40.3639H23.4095V42.5728C23.4095 45.7318 24.9154 46.4454 26.584 46.4454C28.4417 46.4454 29.7244 45.7318 29.7244 42.5728V26H36.1036ZM41.798 26H61V32.5866H48.2113V36.3911H58.7222V42.5367H48.2113V45.9323H61V52.4909H41.798V26Z" fill="white"/>
</svg>

<svg xmlns="http://www.w3.org/2000/svg" width="79" height="79" fill="none"><path fill="#412C88" d="M79 39.5C79 61.315 61.312 79 39.498 79 17.688 79 0 61.315 0 39.5S17.688 0 39.498 0C61.312 0 79 17.685 79 39.5"/><path fill="#fff" d="M36.104 26v16.673c0 7.1-4.329 10.327-9.52 10.327C21.582 53 17 49.773 17 42.673v-2.31h6.41v2.21c0 3.159 1.505 3.872 3.174 3.872 1.858 0 3.14-.713 3.14-3.872V26zm5.694 0H61v6.587H48.211v3.804h10.511v6.146h-10.51v3.395H61v6.559H41.798z"/></svg>
